svgs/solid/lasso.svg

<svg xmlns="http://www.w3.org/2000/svg" viewBox="0 0 576 512"><!--! Font Awesome Pro 6.2.0 by @fontawesome - https://fontawesome.com License - https://fontawesome.com/license (Commercial License) Copyright 2022 Fonticons, Inc. --><path d="M576 176c0 97.2-128.9 176-288 176c-13.2 0-26.3-.5-39-1.6c4.6 12.8 7 26.5 7 40.6c0 66.8-54.2 121-121 121H64c-17.7 0-32-14.3-32-32s14.3-32 32-32h71c31.5 0 57-25.5 57-57c0-21.6-12.2-41.3-31.5-51l-46.8-23.4 .2-.4C44.7 284.1 0 233.2 0 176C0 78.8 128.9 0 288 0S576 78.8 576 176zM288 288c123.7 0 224-50.1 224-112s-100.3-112-224-112S64 114.1 64 176s100.3 112 224 112z"/></svg>

<svg xmlns="http://www.w3.org/2000/svg" viewBox="0 0 576 512"><!--! Font Awesome Pro 6.1.2 by @fontawesome - https://fontawesome.com License - https://fontawesome.com/license (Commercial License) Copyright 2022 Fonticons, Inc. --><path d="M576 176C576 273.2 447.1 352 288 352C274.8 352 261.7 351.5 248.1 350.4C253.6 363.2 256 376.9 256 391C256 457.8 201.8 512 135 512H64C46.33 512 32 497.7 32 480C32 462.3 46.33 448 64 448H135C166.5 448 192 422.5 192 391C192 369.4 179.8 349.7 160.5 340L113.7 316.6L113.9 316.2C44.69 284.1 0 233.2 0 176C0 78.8 128.9 0 288 0C447.1 0 576 78.8 576 176V176zM288 288C411.7 288 512 237.9 512 176C512 114.1 411.7 64 288 64C164.3 64 64 114.1 64 176C64 237.9 164.3 288 288 288z"/></svg>
